X: 538
T: Duke of Perth
B: jims roots
M:4/4
L:1/8
R: reel
Q: 1/4=100
K:G
V:1 
%D:Jimmy Shand, BL2361
%Z:Nigel Gatherer
d/B/ | "G"G/A/B/c/ dB gB/B/ dB | gB/B/ "Em"dB "Am"aA/A/ "D7"A/B/|
"G"G/A/B/c/ d/B/A/G/  gB/B/ "E7"dB | "Am"cA/^c/ "D7"d>=c "G"BG G:|
B/d/ | "Em"g>age "Am"a>bae | "Em"g>age be"B7"ef|
"Em"g>age "Am"a>baf | "G"g>e "D7"d>c "G"BG G  :|]
% abcbook-tune_id 6298c25d92e3efcb7b31b2f2


% abcbook-boost 0
% abcbook-tablature 
% abcbook-transpose 
% abcbook-lastupdated 1654178397746
% abcbook-soundfonts 
% abcbook-repeats 1


